X:1
T:Cairo, LM
T:Cairo, LM
T:The Sabbath Hymn and Tune Book, 1859
T:Public Domain Courtesy of the Cyber Hymnal™
C:The Sabbath Hymn and Tune Book, 1859
Z:Public Domain
Z:Courtesy of the Cyber Hymnal™
%%score ( 1 2 ) ( 3 4 )
L:1/8
Q:1/4=112
M:none
K:G
V:1 treble 
V:2 treble 
V:3 bass 
V:4 bass 
V:1
 D4 | E2 D2 G2 [DB]2 [DA]2 [B,G]2 | [CE]4 [B,D]4 | [CE]2 [B,D]2 [DG]2 [GB]2 [GA]2 [FA]2 | %4
 G4 [FA]4 | [GB]2 [Gd]2 [Ge]2 [Fd]2 [GB]2 [B,G]2 | [DA]4 D4 | [CE]2 [DG]2 [EA]2 [DG]2 [EG]2 [DF]2 | %8
 [DG]4 |] %9
V:2
 D4 | E2 D2 G2 x6 | x8 | x12 | G4 x4 | x12 | x4 D4 | x12 | x4 |] %9
V:3
 F,4 | F,2 F,2 G,2 [G,,G,]2 [D,F,]2 [E,G,]2 | [C,G,]4 [G,,G,]4 | %3
 [C,G,]2 [G,,G,]2 [B,,G,]2 [G,,D]2 [D,D]2 [D,C]2 | [G,,B,]4 [D,D]4 | %5
 [G,D]2 [B,,D]2 [C,C]2 [D,A,]2 [E,G,]2 [E,G,]2 | [D,F,]4 [B,,G,]4 | %7
 [C,G,]2 [B,,B,]2 [A,,C]2 [B,,B,]2 [C,A,]2 [D,A,]2 | [G,,B,]4 |] %9
V:4
 F,4 | F,2 F,2 G,2 x6 | x8 | x12 | x8 | x12 | x8 | x12 | x4 |] %9

